!! 00047] TT[KA
!! NN
!!!OTL: Gan zi shu
!!!ARE: Asia, China,ÿHubei, Hefeng
!! Ethnic Group: Han
!! I, 470
!!!SCT: C0119
!!!YEM: Copyright 1995, estate of Helmut Schaffrath.
**kern
*ICvox
*Ivox
*M2/4
*k[f#]
*G:
{8dd
8b
8dd
8b
=1
8.ee
16ff#
4ee
=2
8dd
16ee
16ff#
8ee
16dd
16b
=3
16b
16dd
16b
16a
8g
8a
=4
2b}
=5
{8dd
16b
16a
8dd
8b
=6
8dd
8b
8a
8g
=7
8e
4e
8g
=8
8.a
16dd
8b
8a
=9
8g
16e
16e
8a
8g
=10
2e}
==
!!!AGN: Xiaodiao, Fengsuge, shijiemeige. Songjia
!! Das Maedchen muss vor der Hochzeit zwei bis drei Tage lang
!!    solche Lieder singen. Weinend, !), um sich damit fuer die
!!    Erziehung, ggf. Ausbildung) bei ihren Eltern zu bedanken.
!!!ONB: ESAC (Essen Associative Code) Database: CHINA
!!!AMT: simple duple
!!!AIN: vox
!!!EED: Helmut Schaffrath
!!!EEV: 1.0
*-
